X:25
T:Ashokan Farewell
M:3/4
L:1/8
K:D
Ac|:d3 c BA|F4 EF|G3 F ED|B,2 D3 B,|A,2 D2 F2|A2 d2 f2|
|1 f3 g f2|e4 Ac :|2 A2 c2 e2|d4 FG ||A3 F D2|d4 A2|B3 c d2|
A F3 E2|F3 E D2|B,4 G,2|A,6|A4 FE|D2 F2 A2|=c6|
B3 c d2|A2 F3 D|A,2 D2 F2|A2 d2 F2|E2 D C2|D4 Ac :|
